X:540
T: Jackie Coleman's #1
M: C|
L: 1/8
R: reel
K: D
dB|AF~F2 EDB,D|F2AF BFAF|E2BE dEBE|ABde fedB|
AF~F2 EDB,D|F2AF BFAF|E2BE dEBE|1 ABde fd :|2\
ABde fd||
de|fddc d2de|fddc dfaf|eA c/B/A eAfA|eA c/B/A efge|
fddc d2de|fddc dfaf|g2gf gbag|1 f/g/a eg fd :|2\
f/g/a eg fddB||
